assets/img/illustration/leaf-2.svg

<?xml version="1.0" encoding="UTF-8"?>
<svg width="420px" height="420px" viewBox="0 0 420 420" version="1.1" xmlns="http://www.w3.org/2000/svg" xmlns:xlink="http://www.w3.org/1999/xlink">
    <title>5. Elements_Illustrations/2.Vector/Leaf 2</title>
    <g id="5.-Elements_Illustrations/2.Vector/Leaf-2" stroke="none" stroke-width="1" fill="none" fill-rule="evenodd">
        <g id="Group-21" transform="translate(123.000000, 77.000000)">
            <path d="M126.68106,48.3254069 C114.933124,32.2385519 102.599607,14.9602746 94.8607069,4.06456248 C91.0120625,-1.35485416 82.9879375,-1.35485416 79.1392931,4.06456248 C71.400393,14.9602746 59.0668757,32.2385519 47.3189395,48.3254069 C22.6829241,82.0606309 -10.9115736,132.025286 3.44651072,188.787343 C16.153771,239.020466 49.945732,266 87,266 C124.054268,266 157.846986,239.020466 170.553489,188.787343 C184.911574,132.025286 151.317076,82.0606309 126.68106,48.3254069" id="Fill-1" fill="#D76230"></path>
            <path d="M174,155.139222 C173.948129,154.089287 173.883291,153.043132 173.803196,152 C158.488325,184.994709 136.00002,201.241107 119.724775,209.06535 C110.865538,213.324049 102.852253,215.615159 97,216.845752 C97.5980405,217.238816 98.1922669,217.62281 98.7834421,218 C104.563992,216.687015 112.085266,214.410266 120.322053,210.45846 C136.427954,202.729459 158.521126,186.896534 174,155.139222" id="Fill-3" fill="#AA391B"></path>
            <path d="M90.0045628,143.448332 C90.0030419,143.964803 90.0022814,144.482026 90,145 C94.6791422,143.822717 106.194106,140.304401 119.04977,131.752939 C130.263589,124.293808 144.21052,111.769204 155,91.6072991 C154.711784,91.0697786 154.424328,90.5330098 154.13307,90 C143.436367,110.397963 129.4651,123.001504 118.262688,130.464393 C105.884596,138.711386 94.7878887,142.211659 90.0045628,143.448332" id="Fill-5" fill="#AA391B"></path>
            <path d="M89.0197546,81 C92.0703256,79.586289 99.0171177,75.8818638 106.380277,68.6526772 C111.936647,63.1980519 118.359941,55.0134494 123,43.4616721 C122.645176,42.9752094 122.291113,42.4879853 121.936289,42 C117.378288,53.7588475 110.93068,62.0424174 105.370511,67.5130297 C98.6820488,74.0935993 92.2238039,77.7378828 89,79.3122255 L89.0197546,81 Z" id="Fill-7" fill="#AA391B"></path>
            <path d="M98.5613602,27.1241147 C100.451836,24.4017538 102.434241,20.8587521 104,16.4921417 C103.642663,15.9935245 103.281619,15.4889713 102.931696,15 C99.1373993,26.2812142 92.0974151,32.748398 89,35.1606071 C89.0118618,35.7734907 89.0207582,36.3863744 89.0318786,37 C90.6940147,35.826914 94.7114615,32.6682631 98.5613602,27.1241147" id="Fill-9" fill="#AA391B"></path>
            <path d="M89,265 C103.110669,264.751235 116.707936,260.567328 128.795063,252.650447 C130.869719,233.466252 116.907133,228.984729 99.8460922,218 C95.3043991,219.040152 91.853404,219.472296 90.0177842,219.644403 C89.7509353,234.764188 89.4292133,249.883221 89,265" id="Fill-11" fill="#AA391B"></path>
            <path d="M50.2430408,93.9828184 C51.8244355,80.4353705 50.9188376,63.1922712 47.6124223,47 C47.4582137,47.2092591 47.3032491,47.42154 47.1497963,47.6323099 C38.3780446,59.6061598 28.4716496,73.6355835 20,89.2914867 C28.5064222,105.782915 39.1203627,117.225685 48.7478214,125 C48.3789301,114.804475 49.0184425,104.472969 50.2430408,93.9828184" id="Fill-13" fill="#AA391B"></path>
            <path d="M89.1158662,211.519824 C89.0807326,213.680133 89.0373762,215.840441 89,218 C90.6034386,217.844728 93.3782471,217.492928 97,216.721817 C94.4195477,215.002572 91.7792936,213.116802 89.1233414,211 C89.1203513,211.172525 89.1181088,211.3473 89.1158662,211.519824" id="Fill-15" fill="#AA391B"></path>
            <path d="M86.1938027,137.113676 C86.1922972,135.974518 86.1870279,134.833844 86.1862752,133.694687 C86.1825114,131.940445 86.1870279,130.185445 86.1877807,128.431204 C86.1938027,117.119265 86.2773582,105.806568 86.2984352,94.4938712 L86.5641566,55.2847126 L86.9465546,0.00751994334 C86.6100745,-0.00613174247 86.2743472,0 85.9386198,0.0204132022 C85.3785724,12.0589248 84.8892837,24.1004701 84.4782811,36.1450491 C82.5188679,34.5796558 79.3339746,31.6635041 76.310923,27.2661444 C74.2935479,24.3317904 72.169282,20.4312003 70.585492,15.5567901 C70.2362151,16.0482508 69.8794107,16.549571 69.5233591,17.0508913 C73.7786656,29.098504 81.4906088,35.7999649 84.4203192,38.00092 C84.2283675,43.7460044 84.0454488,49.4910889 83.8836071,55.2361733 L83.3754996,74.8445447 L83.2911914,79.303337 C79.8932693,77.5460616 74.0052439,73.9935896 67.9252668,67.9792636 C62.3789908,62.4912859 55.9414565,54.1637576 51.4204286,42.3209201 C51.0688935,42.8078302 50.7181111,43.2924651 50.3665759,43.7786168 C54.9704066,55.41137 61.3823473,63.6425781 66.9248595,69.1146288 C73.5904776,75.6954998 79.9113353,79.3427752 83.258823,80.9991797 L83.0036402,94.4567082 C82.7763091,107.532748 82.6596325,120.610305 82.6265114,133.690136 C82.6137147,137.13567 82.6107037,140.580446 82.6144674,144.025221 C77.4370398,142.565249 67.1130475,138.974097 55.6802516,131.211597 C53.440062,129.690192 51.0862068,127.951878 48.6706259,125.986035 C48.694714,126.654209 48.7165438,127.323142 48.7496649,127.990558 C50.8633922,129.66744 52.9259324,131.172159 54.9011534,132.511541 C66.7569959,140.548592 77.4648917,144.17994 82.6189839,145.598957 C82.6573743,165.996092 82.9787993,186.390953 83.4929289,206.77747 C80.4947181,203.969015 77.515326,200.800307 74.6157257,197.165166 C56.6987249,174.702076 49.9149248,151.717946 48.7496649,127.990558 C38.9352856,120.204546 27.9865091,108.613506 19.1838284,91.7544329 C9.64420355,109.870978 2.09636022,130.107327 0.374063873,151.824884 C15.4915803,185.26393 37.8249765,201.68615 53.9662355,209.575307 C67.5857757,216.231263 79.181166,218.100785 83.83242,218.610448 L83.8798434,220.140195 C79.2376224,219.647218 67.3403786,217.785279 53.376078,210.973088 C37.3996717,203.177976 15.4486735,187.169857 0.162540588,154.968564 C-0.414067368,165.904323 0.513322975,177.201851 3.42797834,188.783031 C15.9725888,238.629128 49.1742169,265.564663 85.704514,265.981039 C85.9898069,265.984073 86.2743472,266 86.5603929,266 C86.7071795,266 86.8532134,265.991657 87,265.99014 C86.8931092,248.022247 86.7342786,230.059662 86.6017942,212.098594 C86.3865072,187.100082 86.2269238,162.10612 86.1938027,137.113676" id="Fill-17" fill="#AA391B"></path>
            <path d="M90.0771819,218.680924 C90.1192429,216.49727 90.1671924,214.312857 90.207571,212.128445 C90.2109359,211.953995 90.2134595,211.77727 90.2159832,211.602821 C90.5634069,189.694984 90.8704522,167.785631 90.9596215,145.877794 C90.9621451,145.354445 90.9629863,144.833372 90.96551,144.31154 C90.9781283,140.770971 91,137.23192 91,133.69211 C90.8839117,120.619767 90.8006309,107.546665 90.6063091,94.4743216 L90.437224,81.412597 L90.4153523,79.731813 L90.3522608,74.8661859 L90.0174553,55.2580503 C89.9190326,49.5998152 89.8079916,43.9408217 89.691062,38.2818282 C89.6784437,37.6553266 89.6683491,37.028825 89.6548896,36.4023233 C89.4008412,24.2856605 89.0963197,12.1705147 88.7488959,0.0561272644 C88.4494217,0.0235127729 88.1491062,0.00986019509 87.8487907,0 L87.4206099,55.2808046 L87.1245005,94.492525 C87.1001052,105.805961 87.007571,117.119397 87,128.432075 C87.007571,130.185673 87.015142,131.939271 87.0218717,133.692868 L87.0067298,137.115114 C87.0445846,162.109192 87.222082,187.104787 87.4635121,212.104932 C87.6107256,230.067174 87.7882229,248.030932 87.9076761,266 C88.2424816,266 88.5747634,265.98483 88.9087277,265.979521 C89.3890641,250.723524 89.748265,235.465251 90.046898,220.206979 C90.0569926,219.698041 90.0679285,219.189103 90.0771819,218.680924" id="Fill-19" fill="#FC95A4"></path>
        </g>
    </g>
</svg>

<?xml version="1.0" encoding="UTF-8"?>
<svg version="1.1" viewBox="0 0 420 420" xmlns="http://www.w3.org/2000/svg">
<title>5. Elements_Illustrations/2.Vector/Leaf 2</title>
<g fill="none" fill-rule="evenodd">
<g transform="translate(123 77)">
<path d="m126.68 48.325c-11.748-16.087-24.081-33.365-31.82-44.261-3.8486-5.4194-11.873-5.4194-15.721 0-7.7389 10.896-20.072 28.174-31.82 44.261-24.636 33.735-58.231 83.7-43.872 140.46 12.707 50.233 46.499 77.213 83.553 77.213s70.847-26.98 83.553-77.213c14.358-56.762-19.236-106.73-43.872-140.46" fill="#D76230"/>
<path d="m174 155.14c-0.051871-1.0499-0.11671-2.0961-0.1968-3.1392-15.315 32.995-37.803 49.241-54.078 57.065-8.8592 4.2587-16.873 6.5498-22.725 7.7804 0.59804 0.39306 1.1923 0.77706 1.7834 1.1542 5.7805-1.313 13.302-3.5897 21.539-7.5415 16.106-7.729 38.199-23.562 53.678-55.319" fill="#AA391B"/>
<path d="m90.005 143.45c-0.0015209 0.51647-0.0022814 1.0337-0.0045628 1.5517 4.6791-1.1773 16.194-4.6956 29.05-13.247 11.214-7.4591 25.161-19.984 35.95-40.146-0.28822-0.53752-0.57567-1.0743-0.86693-1.6073-10.697 20.398-24.668 33.002-35.87 40.464-12.378 8.247-23.475 11.747-28.258 12.984" fill="#AA391B"/>
<path d="m89.02 81c3.0506-1.4137 9.9974-5.1181 17.361-12.347 5.5564-5.4546 11.98-13.639 16.62-25.191-0.35482-0.48646-0.70889-0.97369-1.0637-1.4617-4.558 11.759-11.006 20.042-16.566 25.513-6.6885 6.5806-13.147 10.225-16.371 11.799l0.019755 1.6878z" fill="#AA391B"/>
<path d="m98.561 27.124c1.8905-2.7224 3.8729-6.2654 5.4386-10.632-0.35734-0.49862-0.71838-1.0032-1.0683-1.4921-3.7943 11.281-10.834 17.748-13.932 20.161 0.011862 0.61288 0.020758 1.2258 0.031879 1.8394 1.6621-1.1731 5.6796-4.3317 9.5295-9.8759" fill="#AA391B"/>
<path d="m89 265c14.111-0.24876 27.708-4.4327 39.795-12.35 2.0747-19.184-11.888-23.666-28.949-34.65-4.5417 1.0402-7.9927 1.4723-9.8283 1.6444-0.26685 15.12-0.58857 30.239-1.0178 45.356" fill="#AA391B"/>
<path d="m50.243 93.983c1.5814-13.547 0.6758-30.791-2.6306-46.983-0.15421 0.20926-0.30917 0.42154-0.46263 0.63231-8.7718 11.974-18.678 26.003-27.15 41.659 8.5064 16.491 19.12 27.934 28.748 35.709-0.36889-10.196 0.27062-20.527 1.4952-31.017" fill="#AA391B"/>
<path d="m89.116 211.52c-0.035134 2.1603-0.07849 4.3206-0.11587 6.4802 1.6034-0.15527 4.3782-0.50707 8-1.2782-2.5805-1.7192-5.2207-3.605-7.8767-5.7218-0.0029901 0.17252-0.0052326 0.3473-0.0074752 0.51982" fill="#AA391B"/>
<path d="m86.194 137.11c-0.0015055-1.1392-0.0067748-2.2798-0.0075275-3.419-0.0037638-1.7542 7.527e-4 -3.5092 0.0015055-5.2635 0.006022-11.312 0.089578-22.625 0.11065-33.937l0.26572-39.209 0.3824-55.277c-0.33648-0.013652-0.67221-0.0075199-1.0079 0.012893-0.56005 12.039-1.0493 24.08-1.4603 36.125-1.9594-1.5654-5.1443-4.4815-8.1674-8.8789-2.0174-2.9344-4.1416-6.8349-5.7254-11.709-0.34928 0.49146-0.70608 0.99278-1.0621 1.4941 4.2553 12.048 11.967 18.749 14.897 20.95-0.19195 5.7451-0.37487 11.49-0.53671 17.235l-0.50811 19.608-0.084308 4.4588c-3.3979-1.7573-9.2859-5.3097-15.366-11.324-5.5463-5.488-11.984-13.816-16.505-25.658-0.35154 0.48691-0.70232 0.97154-1.0539 1.4577 4.6038 11.633 11.016 19.864 16.558 25.336 6.6656 6.5809 12.986 10.228 16.334 11.885l-0.25518 13.458c-0.22733 13.076-0.34401 26.154-0.37713 39.233-0.012797 3.4455-0.015808 6.8903-0.012044 10.335-5.1774-1.46-15.501-5.0511-26.934-12.814-2.2402-1.5214-4.594-3.2597-7.0096-5.2256 0.024088 0.66817 0.045918 1.3371 0.079039 2.0045 2.1137 1.6769 4.1763 3.1816 6.1515 4.521 11.856 8.0371 22.564 11.668 27.718 13.087 0.03839 20.397 0.35982 40.792 0.87394 61.179-2.9982-2.8085-5.9776-5.9772-8.8772-9.6123-17.917-22.463-24.701-45.447-25.866-69.175-9.8144-7.786-20.763-19.377-29.566-36.236-9.5396 18.117-17.087 38.353-18.81 60.07 15.118 33.439 37.451 49.861 53.592 57.75 13.62 6.656 25.215 8.5255 29.866 9.0351l0.047423 1.5297c-4.6422-0.49298-16.539-2.3549-30.504-9.1671-15.976-7.7951-37.927-23.803-53.214-56.005-0.57661 10.936 0.35078 22.233 3.2654 33.814 12.545 49.846 45.746 76.782 82.277 77.198 0.28529 0.003034 0.56983 0.018961 0.85588 0.018961 0.14679 0 0.29282-0.008343 0.43961-0.00986-0.10689-17.968-0.26572-35.93-0.39821-53.892-0.21529-24.999-0.37487-49.992-0.40799-74.985" fill="#AA391B"/>
<path d="m90.077 218.68c0.042061-2.1837 0.09001-4.3681 0.13039-6.5525 0.0033649-0.17445 0.0058885-0.35118 0.0084122-0.52562 0.34742-21.908 0.65447-43.817 0.74364-65.725 0.0025236-0.52335 0.0033648-1.0444 0.0058885-1.5663 0.012618-3.5406 0.03449-7.0796 0.03449-10.619-0.11609-13.072-0.19937-26.145-0.39369-39.218l-0.16909-13.062-0.021872-1.6808-0.063092-4.8656-0.33481-19.608c-0.098423-5.6582-0.20946-11.317-0.32639-16.976-0.012618-0.6265-0.022713-1.253-0.036172-1.8795-0.25405-12.117-0.55857-24.232-0.90599-36.346-0.29947-0.032614-0.59979-0.046267-0.90011-0.056127l-0.42818 55.281-0.29611 39.212c-0.024395 11.313-0.11693 22.627-0.1245 33.94 0.007571 1.7536 0.015142 3.5072 0.021872 5.2608l-0.015142 3.4222c0.037855 24.994 0.21535 49.99 0.45678 74.99 0.14721 17.962 0.32471 35.926 0.44416 53.895 0.33481 0 0.66709-0.01517 1.0011-0.020479 0.48034-15.256 0.83954-30.514 1.1382-45.773 0.010095-0.50894 0.02103-1.0179 0.030284-1.5261" fill="#FC95A4"/>
</g>
</g>
</svg>
